Adwaita++-Light/panel/16/mullvadr.svg

<svg height="16" width="16" xmlns="http://www.w3.org/2000/svg">
  <path d="m4.5 2c-1.1261999 0-2.5 1.15785-2.5 2.59375 0 .6178.216172 1.413275.5761719 1.859375.0793.2032-.0017063.3711156-.0039063.4160156-.0076.1531.325803.2185865 1.2207032-.0703125 1.6206035-.6377005 2.6781312-1.5501281 3.2070312-2.7988281l1 .0078125v-1.0078125h-1c0-.7332-1.3738-1-2.5-1zm7.5 1a1 1 0 0 0 -1 1 1 1 0 0 0 1 1 1 1 0 0 0 1-1 1 1 0 0 0 -1-1zm-3 1v.0078125a1.0001 1.0001 0 0 1 -1.0078125 1l-.5234375-.0039063c-.7209918 1.1817173-1.8020728 2.1329831-3.3105469 2.7265626a1.0001 1.0001 0 0 1 -.0585937.0214843c-.419729.1355016-.7419674.2027795-1.0605469.2265625-.1934588 1.0408564-.5025972 2.3222674-1.0390625 3.0214844 0 0 2.668-.0084 4 0h3c-.253-1.092-2.0938997-3.0235 0-3l-.0117188-.5c.5923523-.5943607 1.3346398-1.1784911 1.9667968-1.7988281a2 2 0 0 1 -.955078-1.7011719c-.121986.000267-.1714137-.00141-.2929688 0-.5160158.00602-.4373861.000864-.7070312 0zm-3 3c1.4074001.031573 2 1 2 1h-2zm4.707031 2.7578125-.707031.7070315 1.414062 1.414062-1.414062 1.414063.707031.707031 1.414063-1.414062 1.414062 1.414062.707032-.707031-1.414063-1.414063 1.414063-1.414062-.707032-.7070315-1.414062 1.4140625z" fill="#444"/>
</svg>

<svg xmlns="http://www.w3.org/2000/svg" width="16" height="16" version="1.1">
 <defs>
  <style id="current-color-scheme" type="text/css">
   .ColorScheme-Text { color:#444444; } .ColorScheme-Highlight { color:#4285f4; }
  </style>
 </defs>
 <path style="fill:currentColor" class="ColorScheme-Text" d="M 4.5 2 C 3.3738001 2 2 3.15785 2 4.59375 C 2 5.21155 2.216172 6.007025 2.5761719 6.453125 C 2.6554719 6.656325 2.5744656 6.8242406 2.5722656 6.8691406 C 2.5646656 7.0222406 2.8980686 7.0877271 3.7929688 6.7988281 C 5.4135723 6.1611276 6.4711 5.2487 7 4 L 8 4.0078125 L 8 3 L 7 3 C 7 2.2668 5.6262 2 4.5 2 z M 12 3 A 1 1 0 0 0 11 4 A 1 1 0 0 0 12 5 A 1 1 0 0 0 13 4 A 1 1 0 0 0 12 3 z M 9 4 L 9 4.0078125 A 1.0001 1.0001 0 0 1 7.9921875 5.0078125 L 7.46875 5.0039062 C 6.7477582 6.1856235 5.6666772 7.1368893 4.1582031 7.7304688 A 1.0001 1.0001 0 0 1 4.0996094 7.7519531 C 3.6798804 7.8874547 3.357642 7.9547326 3.0390625 7.9785156 C 2.8456037 9.019372 2.5364653 10.300783 2 11 C 2 11 4.668 10.9916 6 11 L 9 11 C 8.747 9.908 6.9061003 7.9765 9 8 L 8.9882812 7.5 C 9.5806335 6.9056393 10.322921 6.3215089 10.955078 5.7011719 A 2 2 0 0 1 10 4 C 9.878014 4.000267 9.8285863 3.99859 9.7070312 4 C 9.1910154 4.00602 9.2696451 4.000864 9 4 z M 6 7 C 7.4074001 7.031573 8 8 8 8 L 6 8 L 6 7 z M 10.707031 9.7578125 L 10 10.464844 L 11.414062 11.878906 L 10 13.292969 L 10.707031 14 L 12.121094 12.585938 L 13.535156 14 L 14.242188 13.292969 L 12.828125 11.878906 L 14.242188 10.464844 L 13.535156 9.7578125 L 12.121094 11.171875 L 10.707031 9.7578125 z"/>
</svg>
